X:2572
T:La primavera
T:Op. 8 no. 1 (Spring, from the Four seasons)
C:Antonio Vivaldi
O:Italy
S:Frank Nordberg <frnordbe@online.no> abcusers 2002-7-4
Z:Transcribed by Frank Nordberg - http://www.musicaviva.com
%http://www.musicaviva.com/abc/tunes/vivaldi-antonio/vivaldi-op8-01.abc
%Posted at abcusers March 8th 2001 by Frank Nordberg
M:C
L:1/8
K:E
V:1 %Violino principale
P:1. Allegro
"Giunt e' la Primavera"e|gg gf/e/ b3 b/a/|gg gf/e/ b3 b/a/|ga/b/ ag fdB"_p"e|
gg gf/e/ b3 b/a/|gg gf/e/ b3 b/a/|ga/b/ ag f2 z "_f"e|ba/g/ ab
c'b2e|ba/g/ ab c'b2e|
c'b2a gf/e/ Tf2|e2 z "_p"e ba/g/ ab|c'b2e ba/g/ ab|c'b2 e c'b2 a|
gf/e/ "Il canto de gl' Uccelli"Tf2 "v"Mb2"v" Mb2|("v"Mb2 "v"Mb2 "v"Mb2
"v"Mb2)|(.b.b.b.b) (.b.b.b.b)|(.b.b.b.b .b.b .bc'/d'/)|
(e'/d'/c'/b/ a/g/f/e/) z4|z8|z2 z (.e' .e'.e'.e'.e')|Te3 (.e' .e'.e'.e'.e')|
